X:56
T:Coachman's Whip
C:Vincent Broderick 
R:reel
M:C
K:G
|: d2BG DGBG | E2BE dEBd | d2BG DGBG | FGAc BG~G2 |
d2BG DGBG | E2BE dEBE | DEGA Bdef | gedc BG~G2 :|
|: D3E G3B | d2BG DGBG | E2BE dEBd | dBAG EGGE |
D3E G3B | d2BG DGBG | FGAB cdef | gedc BG~G2 :|
